!! 00005] TT[TB
!! Eigene Aufnahme
!!!OTL: Xiang qingqing xiangzai xin yanyan shang
!!!ARE: Asia, China, Shanxi, Hequ
!! Ethnic Group: Han
!! I, 330
!!!SCT: C0094
!!!YEM: Copyright 1995, estate of Helmut Schaffrath.
**kern
*ICvox
*Ivox
*M2/4
*k[b-e-a-d-]
*A-:
{16.ff
32ff
16ff
16cc
8fff
16ccc
16fff
=1
16.ff
32ff
16ee-
16cc
16b-
8a-
16b-}
=2
{8cc
8bb-
16aa-
16bb-
16ccc
16eee-
=3
8.ff
16cc
4ff}
=4
{16.ff
32ff
16ff
16cc
8fff
16ccc
16fff
=5
16.ff
32ff
16ee-
16cc
16b-
8a-
16b-}
=6
{8cc
8bb-
8aa-
16bb-
16ccc
=7
2ff}
==
!!!AGN: Shange, shanqu. Biaoda aiqing
!! Grosse Spruenge, Dezime), wird von der mongolischen Singweise
!!    beeinflusst. Saengerin: Huang Bai = leicht verziert. Singt
!!    vier Strophen.
!!!ONB: ESAC (Essen Associative Code) Database: CHINA
!!!AMT: simple duple
!!!AIN: vox
!!!EED: Helmut Schaffrath
!!!EEV: 1.0
*-
